img/logo.svg

<svg width="60" height="32" viewBox="0 0 60 32" fill="none" xmlns="http://www.w3.org/2000/svg">
<path d="M8.78329 8.44248C9.40872 8.6969 9.9438 9.13402 10.3193 9.69731C10.6984 10.288 10.8927 10.9793 10.8771 11.682C10.8771 12.9926 10.4074 14.0216 9.46805 14.7689C8.52867 15.5162 7.25003 15.8913 5.63213 15.894C4.05447 15.894 2.75015 15.5071 1.71919 14.7333C0.688231 13.9595 0.115168 12.8392 0 11.3725H2.83688C3.04501 12.605 3.95803 13.2213 5.57593 13.2213C7.2202 13.2213 8.04233 12.6183 8.04233 11.4122C8.05495 11.195 8.01518 10.978 7.9264 10.7795C7.83762 10.5811 7.70245 10.4071 7.5324 10.2724C7.19383 10.0089 6.61383 9.87716 5.79239 9.87716H3.81511V7.4198H5.43856C6.88718 7.4198 7.61149 6.96179 7.61149 6.04577C7.61149 4.90388 6.85457 4.33363 5.34074 4.33502C4.64696 4.33502 4.10928 4.4626 3.7277 4.71774C3.34265 4.97289 3.08456 5.40999 2.95551 6.02485H0.135286C0.274043 4.60969 0.822133 3.52845 1.77955 2.78113C2.73697 2.03382 3.95595 1.66016 5.43648 1.66016C6.92534 1.66016 8.13183 2.03382 9.05594 2.78113C9.49803 3.11866 9.85444 3.55643 10.0961 4.05873C10.3377 4.56104 10.4577 5.11363 10.4463 5.67141C10.4503 6.24659 10.2946 6.8115 9.99671 7.30268C9.70701 7.78976 9.28642 8.18482 8.78329 8.44248Z" fill="white"/>
<path d="M19.9544 4.8457H22.7518V15.6581H19.9544V11.49H15.1216V15.6581H12.3242V4.8457H15.1216V8.83604H19.9544V4.8457Z" fill="white"/>
<path d="M32.6311 4.84546H35.4284L35.4097 15.6579H32.6124V14.1939C32.2364 14.7362 31.7317 15.1757 31.144 15.4726C30.5564 15.7695 29.9043 15.9144 29.2468 15.8942C28.5796 15.9099 27.9173 15.776 27.3081 15.5021C26.6989 15.2282 26.1582 14.8213 25.7252 14.311C24.7983 13.257 24.3355 11.9038 24.3369 10.2517C24.3383 8.59948 24.8045 7.24636 25.7356 6.19231C26.1643 5.68388 26.6999 5.2774 27.3038 5.00217C27.9078 4.72695 28.565 4.58985 29.2281 4.60077C29.8961 4.58147 30.5581 4.73176 31.1529 5.03773C31.7477 5.3437 32.2561 5.79547 32.6311 6.35125V4.84546ZM29.8733 13.2214C30.2412 13.2309 30.607 13.1622 30.9466 13.0198C31.2863 12.8775 31.5922 12.6647 31.8444 12.3953C32.11 12.1071 32.3162 11.769 32.4513 11.4004C32.5863 11.0318 32.6474 10.6399 32.6311 10.2475C32.6616 9.45771 32.3786 8.68812 31.8444 8.108C31.5916 7.8384 31.285 7.62559 30.9445 7.48357C30.6041 7.34155 30.2376 7.27354 29.8692 7.284C29.5033 7.27204 29.1391 7.33945 28.8015 7.48165C28.4639 7.62384 28.1607 7.83748 27.9127 8.108C27.3922 8.69475 27.1197 9.46219 27.153 10.2475C27.1204 11.0362 27.3978 11.8061 27.9252 12.3911C28.1725 12.6607 28.4742 12.8743 28.8101 13.0174C29.146 13.1606 29.5085 13.2301 29.8733 13.2214Z" fill="white"/>
<path d="M44.3524 4.8457H47.5597V15.6581H44.7624V11.8246L44.9393 8.62063L40.4977 15.6581H37.2695V4.8457H40.0669V8.67919L39.9295 11.8455L44.3524 4.8457Z" fill="white"/>
<path d="M9.15854 20.9492H12.3638V31.7616H9.57481V27.9281L9.77046 24.2327L6.41533 29.07H6.33832L2.99151 24.2348L3.16843 27.9302V31.7637H0.371094V20.9513H3.59926L6.37786 24.8057L9.15854 20.9492Z" fill="white"/>
<path d="M19.388 20.7046C21.1488 20.7046 22.5405 21.3139 23.5632 22.5325C24.5858 23.751 25.0264 25.2652 24.8848 27.0749H16.6281C16.7197 27.9115 17.0194 28.5535 17.5273 29.0011C18.0552 29.4535 18.7319 29.6921 19.4254 29.6703C19.9377 29.6794 20.4436 29.554 20.8928 29.3064C21.3014 29.088 21.6253 28.7382 21.8128 28.313H24.7079C24.3955 29.4427 23.6865 30.4204 22.7119 31.0653C21.7381 31.6916 20.6023 32.016 19.4463 31.998C17.7812 31.998 16.4179 31.4675 15.3564 30.4065C14.2949 29.3455 13.767 28.0014 13.7725 26.3743C13.7725 24.7514 14.3005 23.4018 15.3564 22.3254C16.4123 21.249 17.7562 20.7088 19.388 20.7046ZM19.3672 23.026C18.7664 23.0042 18.177 23.1952 17.7021 23.5656C17.2499 23.9399 16.9224 24.4441 16.7634 25.0107H21.9085C21.7745 24.443 21.4586 23.9353 21.0094 23.5656C20.5406 23.2011 19.9595 23.0131 19.3672 23.0344V23.026Z" fill="white"/>
<path d="M31.6741 31.9981C30.9323 32.016 30.1947 31.882 29.5061 31.6042C28.8175 31.3265 28.1924 30.9108 27.6688 30.3825C27.1452 29.8543 26.7341 29.2244 26.4605 28.5314C26.1869 27.8384 26.0565 27.0966 26.0774 26.3514C26.0589 25.606 26.1916 24.8647 26.4675 24.1725C26.7434 23.4804 27.1566 22.8519 27.6821 22.3255C28.7394 21.2449 30.0763 20.7046 31.6928 20.7046C32.9742 20.6801 34.226 21.093 35.2436 21.8758C35.7415 22.2563 36.1583 22.7334 36.4693 23.2787C36.7804 23.824 36.9793 24.4265 37.0544 25.0505H34.178C34.0446 24.5197 33.7207 24.0571 33.2684 23.7518C32.8004 23.4454 32.2513 23.2879 31.6928 23.3C31.3135 23.283 30.935 23.3489 30.5835 23.4934C30.232 23.6378 29.916 23.8573 29.6573 24.1366C29.1307 24.7487 28.8639 25.5438 28.9142 26.3514C28.8674 27.1564 29.1381 27.9476 29.6677 28.5536C29.9225 28.8299 30.2336 29.0478 30.5799 29.1921C30.9262 29.3365 31.2994 29.4041 31.6741 29.3901C32.2351 29.4013 32.7866 29.244 33.258 28.9384C33.7188 28.6313 34.0474 28.1607 34.178 27.6208H37.0482C36.8386 28.9969 36.2288 30.0684 35.2186 30.8353C34.1993 31.6092 32.9516 32.0185 31.6741 31.9981Z" fill="white"/>
<path d="M47.2284 20.9492V23.6032H43.8983V31.7595H41.103V23.6032H37.7979V20.9492H47.2284Z" fill="white"/>
<path d="M56.2865 20.9492H59.0839L59.0651 31.7616H56.2657V30.2977C55.8907 30.8405 55.3865 31.2804 54.7991 31.5774C54.2116 31.8744 53.5595 32.0189 52.9022 31.998C52.2347 32.014 51.572 31.8802 50.9624 31.6063C50.3528 31.3324 49.8117 30.9254 49.3785 30.4148C48.453 29.3607 47.9902 28.0076 47.9902 26.3554C47.9902 24.7033 48.4565 23.3501 49.3889 22.2961C49.8176 21.7877 50.3532 21.3812 50.9572 21.106C51.5611 20.8307 52.2183 20.6936 52.8814 20.7046C53.5497 20.6851 54.2121 20.8353 54.8073 21.1413C55.4024 21.4472 55.9112 21.8991 56.2865 22.455V20.9492ZM53.5266 29.3252C53.8956 29.3353 54.2624 29.2669 54.6032 29.1245C54.9439 28.9822 55.2509 28.769 55.5039 28.4991C56.0092 27.9002 56.2866 27.1406 56.2866 26.3554C56.2866 25.5703 56.0092 24.8107 55.5039 24.2118C55.2507 23.9422 54.9437 23.7295 54.6029 23.5875C54.2622 23.4455 53.8954 23.3774 53.5266 23.3878C53.1608 23.3762 52.7968 23.4438 52.4592 23.586C52.1217 23.7282 51.8185 23.9416 51.5702 24.2118C51.0497 24.7987 50.7765 25.5658 50.8084 26.3513C50.7747 27.1401 51.0522 27.9105 51.5806 28.4949C51.8273 28.7647 52.1286 28.9783 52.4642 29.1215C52.7999 29.2647 53.1621 29.3342 53.5266 29.3252Z" fill="white"/>
<path d="M45.6821 0H39.1279V2.12274H45.6821V0Z" fill="white"/>
<path d="M51.2684 14.7607C51.3849 14.6569 51.5352 14.5996 51.6909 14.5996C51.8466 14.5996 51.9969 14.6569 52.1134 14.7607C52.1675 14.814 52.2104 14.8777 52.2397 14.9479C52.269 15.0181 52.2841 15.0934 52.2841 15.1696C52.2841 15.2457 52.269 15.3211 52.2397 15.3913C52.2104 15.4615 52.1675 15.5251 52.1134 15.5784C51.9963 15.681 51.8462 15.7375 51.6909 15.7375C51.5356 15.7375 51.3855 15.681 51.2684 15.5784C51.2143 15.5251 51.1714 15.4615 51.1421 15.3913C51.1128 15.3211 51.0977 15.2457 51.0977 15.1696C51.0977 15.0934 51.1128 15.0181 51.1421 14.9479C51.1714 14.8777 51.2143 14.814 51.2684 14.7607Z" fill="white"/>
<path d="M55.1263 11.8977C55.1959 11.8984 55.2653 11.9026 55.3345 11.9103V12.8953C55.2571 12.8863 55.1793 12.8815 55.1013 12.8807C54.8067 12.8668 54.5169 12.9604 54.2855 13.1442C54.1751 13.258 54.0908 13.3946 54.0383 13.5445C53.9858 13.6944 53.9665 13.854 53.9816 14.0121V15.6518H53.0283V11.9772H53.9816V12.6193C54.0749 12.395 54.2351 12.2052 54.44 12.076C54.645 11.9468 54.8847 11.8845 55.1263 11.8977Z" fill="white"/>
<path d="M58.13 11.9773H59.0832V15.6581H58.13V15.1499C58.0061 15.3361 57.8373 15.4877 57.6392 15.5905C57.4412 15.6932 57.2205 15.7439 56.9977 15.7376C56.8197 15.7466 56.6418 15.7163 56.4768 15.6487C56.3117 15.5812 56.1634 15.478 56.0424 15.3465C55.7967 15.0501 55.6718 14.6713 55.6927 14.2862V11.9857H56.646V14.077C56.6314 14.2771 56.6866 14.476 56.8021 14.6396C56.8691 14.707 56.9502 14.7586 57.0394 14.7907C57.1286 14.8229 57.2239 14.8349 57.3182 14.8257C57.4294 14.8332 57.5409 14.816 57.6448 14.7756C57.7487 14.7351 57.8425 14.6723 57.9197 14.5915C58.0723 14.3988 58.1467 14.1552 58.1279 13.9097L58.13 11.9773Z" fill="white"/>
</svg>

<svg width="60" height="32" viewBox="0 0 60 32" fill="none" xmlns="http://www.w3.org/2000/svg"><path d="M8.783 8.442a3.38 3.38 0 0 1 1.536 1.255 3.52 3.52 0 0 1 .558 1.985c0 1.31-.47 2.34-1.409 3.087-.94.747-2.218 1.122-3.836 1.125-1.578 0-2.882-.387-3.913-1.16C.69 13.96.115 12.838 0 11.372h2.837c.208 1.232 1.121 1.848 2.739 1.848 1.644 0 2.466-.603 2.466-1.809a1.357 1.357 0 0 0-.51-1.14c-.338-.263-.918-.395-1.74-.395H3.815V7.42H5.44c1.448 0 2.172-.458 2.172-1.374 0-1.142-.756-1.712-2.27-1.711-.694 0-1.232.128-1.613.383-.385.255-.643.692-.772 1.307H.136C.273 4.61.821 3.528 1.78 2.78c.957-.747 2.176-1.12 3.656-1.12 1.49 0 2.696.373 3.62 1.12a3.536 3.536 0 0 1 1.39 2.89 3.104 3.104 0 0 1-.45 1.632c-.289.487-.71.882-1.213 1.14zm11.171-3.596h2.798v10.812h-2.798V11.49h-4.832v4.168h-2.798V4.846h2.798v3.99h4.832v-3.99zm12.677-.001h2.797l-.018 10.813h-2.798v-1.464a3.96 3.96 0 0 1-1.468 1.279 3.938 3.938 0 0 1-1.897.421 4.47 4.47 0 0 1-3.522-1.583c-.927-1.054-1.39-2.407-1.388-4.06.001-1.652.468-3.005 1.399-4.059a4.484 4.484 0 0 1 3.492-1.591 3.957 3.957 0 0 1 3.403 1.75V4.845zm-2.758 8.376a2.602 2.602 0 0 0 1.971-.826 2.982 2.982 0 0 0 .787-2.147c.03-.79-.252-1.56-.787-2.14a2.612 2.612 0 0 0-1.975-.824 2.537 2.537 0 0 0-1.956.824 3.03 3.03 0 0 0-.76 2.14 3.016 3.016 0 0 0 .772 2.143 2.566 2.566 0 0 0 1.948.83zm14.479-8.375h3.208v10.812h-2.798v-3.833l.177-3.204-4.441 7.037H37.27V4.846h2.797v3.833l-.138 3.166 4.423-7zM9.159 20.95h3.205v10.812h-2.79v-3.834l.196-3.695-3.355 4.837h-.077l-3.346-4.835.176 3.695v3.834H.371V20.95H3.6l2.779 3.855 2.78-3.857zm10.229-.245c1.76 0 3.152.609 4.175 1.828 1.023 1.218 1.463 2.732 1.322 4.542h-8.257c.092.837.391 1.479.9 1.926a2.782 2.782 0 0 0 1.897.67 2.932 2.932 0 0 0 1.468-.365c.408-.218.732-.568.92-.993h2.895a4.849 4.849 0 0 1-1.996 2.752 5.864 5.864 0 0 1-3.266.933c-1.665 0-3.028-.53-4.09-1.591-1.061-1.061-1.589-2.406-1.583-4.033 0-1.623.527-2.972 1.583-4.049 1.056-1.076 2.4-1.616 4.032-1.62zm-.02 2.321a2.558 2.558 0 0 0-1.666.54c-.452.374-.78.878-.939 1.445h5.145a2.664 2.664 0 0 0-.899-1.445 2.527 2.527 0 0 0-1.642-.532v-.008zm12.306 8.972a5.443 5.443 0 0 1-4.005-1.616 5.496 5.496 0 0 1-1.592-4.03 5.515 5.515 0 0 1 1.605-4.026c1.057-1.081 2.394-1.621 4.01-1.621a5.646 5.646 0 0 1 3.552 1.17 4.69 4.69 0 0 1 1.81 3.175h-2.876a2.219 2.219 0 0 0-.91-1.298 2.767 2.767 0 0 0-1.575-.452 2.61 2.61 0 0 0-2.036.837 3.1 3.1 0 0 0-.743 2.214 3.076 3.076 0 0 0 .754 2.203 2.603 2.603 0 0 0 2.006.836 2.808 2.808 0 0 0 1.584-.452c.46-.307.79-.777.92-1.317h2.87c-.21 1.376-.82 2.447-1.83 3.214a5.71 5.71 0 0 1-3.544 1.163zM47.228 20.95v2.653h-3.33v8.156h-2.795v-8.156h-3.305V20.95h9.43zm9.058 0h2.798l-.019 10.812h-2.8v-1.464a3.927 3.927 0 0 1-3.364 1.7 4.471 4.471 0 0 1-3.522-1.583c-.926-1.054-1.389-2.407-1.389-4.06 0-1.652.466-3.005 1.399-4.059a4.483 4.483 0 0 1 3.492-1.591 3.96 3.96 0 0 1 1.926.436 3.982 3.982 0 0 1 1.48 1.314v-1.506zm-2.76 8.375a2.607 2.607 0 0 0 1.978-.826 3.325 3.325 0 0 0 0-4.287 2.617 2.617 0 0 0-1.977-.824 2.542 2.542 0 0 0-1.957.824 3.039 3.039 0 0 0-.762 2.14 3.007 3.007 0 0 0 .773 2.143 2.557 2.557 0 0 0 1.946.83zM45.682 0h-6.554v2.123h6.554V0zm5.586 14.76a.635.635 0 0 1 .845 0 .572.572 0 0 1 0 .818.641.641 0 0 1-.845 0 .572.572 0 0 1-.126-.63.572.572 0 0 1 .126-.187zm3.858-2.862c.07 0 .14.005.209.012v.985a2.215 2.215 0 0 0-.234-.014 1.22 1.22 0 0 0-.816.263 1.094 1.094 0 0 0-.303.868v1.64h-.954v-3.675h.954v.642a1.176 1.176 0 0 1 1.144-.721zm3.004.079h.953v3.681h-.953v-.508a1.32 1.32 0 0 1-1.132.588 1.213 1.213 0 0 1-.956-.391 1.532 1.532 0 0 1-.35-1.06v-2.301h.954v2.091c-.015.2.04.399.156.563a.64.64 0 0 0 .516.186.76.76 0 0 0 .602-.235.978.978 0 0 0 .208-.681l.002-1.933z" fill="#fff"/></svg>
